packages/assets/static/images/icons/map.svg

<svg width="24" height="24" viewBox="0 0 24 24" xmlns="http://www.w3.org/2000/svg">
<path d="M22.1919 4.36301C22.0572 4.25792 21.9003 4.1849 21.7331 4.14949C21.566 4.11408 21.3929 4.11721 21.2272 4.15863L15.6312 5.55738L10.0063 2.74488C9.76599 2.62467 9.49064 2.59441 9.23 2.65957L3.23 4.15957C2.98625 4.21983 2.76967 4.3599 2.61473 4.55748C2.45979 4.75506 2.3754 4.9988 2.375 5.24988V18.7499C2.37503 18.9208 2.41401 19.0895 2.48899 19.2431C2.56396 19.3968 2.67297 19.5313 2.80771 19.6365C2.94246 19.7417 3.09941 19.8148 3.26663 19.8502C3.43386 19.8857 3.60697 19.8826 3.77281 19.8411L9.36875 18.4424L14.9938 21.2549C15.234 21.3751 15.5094 21.4054 15.77 21.3402L21.77 19.8402C22.0137 19.7799 22.2303 19.6399 22.3853 19.4423C22.5402 19.2447 22.6246 19.001 22.625 18.7499V5.24988C22.625 5.07886 22.5859 4.91009 22.5109 4.75641C22.4358 4.60273 22.3267 4.46819 22.1919 4.36301ZM10.625 5.57051L14.375 7.44551V18.4293L10.625 16.5543V5.57051ZM4.625 6.13301L8.375 5.19551V16.3714L4.625 17.3089V6.13301ZM20.375 17.8714L16.625 18.8089V7.62832L20.375 6.69082V17.8714Z"/>
</svg>

<svg viewBox="0 0 24 24" xmlns="http://www.w3.org/2000/svg" aria-hidden="true" fill="currentColor" height="24px" width="24px"><path d="M22.192 4.363a1.13 1.13 0 0 0-.965-.204l-5.596 1.398-5.625-2.812c-.24-.12-.515-.15-.776-.085l-6 1.5a1.125 1.125 0 0 0-.855 1.09v13.5a1.125 1.125 0 0 0 1.398 1.091l5.596-1.399 5.625 2.813c.24.12.515.15.776.085l6-1.5a1.126 1.126 0 0 0 .855-1.09V5.25a1.13 1.13 0 0 0-.433-.887M10.625 5.571l3.75 1.875v10.983l-3.75-1.875zm-6 .562 3.75-.937V16.37l-3.75.938zm15.75 11.738-3.75.938V7.629l3.75-.938z"/></svg>
